X:28
T:The Highlandman kissed his mother
C:MacNeil MS
B:Cape Breton Collection of Bagpipe Music,1995,compiled Barry Shears
B:<caper@ns.sympatico.ca>
N:Pipe music, HP key sig = no visible keysig, but played as if
N:two sharps.  Gracenote in triplet.
R:Strathspey
M:C
K:HP
|:{gef}e2 A>e {g}c>e {g}A2 |{g}(3(ce{A}e) {g}A>e {gef}d>B{e}G>B |
{gef}e2 A>e {g}c/{d}A3/{gf}g>e | {ag}a>f{gf}g>e {gde}d>BG3/{e}B/:|
{gcd}c2 {gf}g>e a>f{gf}g>e | {gcd}c2 {gf}g>e {gde}d>B{e}G>e |
{gcd}c2 {gf}g>e a>f{gf}g>e | {gf}g>ag>e {gde}d>B{e}GB :|

